X: 3864
T: Black Rock
R: slip jig
M: 9/8
K: Adorian
ecA A2A A3|E2A A2B cBA|ecA A2A A3|B2G G2A Bcd|
ecA A2A A3|E2A A2B cBA|e2a aba g3|dBG G2A Bcd||
e3 ecA ecA|e3 ecA Bcd|e3 ecA ecA|dBG G2A Bcd|
e3 ecA ecA|e3 ecA Bcd|e2a aba g3|dBG G2A Bcd||

